raw/symbols/r-eth.svg

<svg width="36" height="36" viewBox="0 0 36 36" fill="none" xmlns="http://www.w3.org/2000/svg">
<path d="M17.9991 35.9982C27.9397 35.9982 35.9982 27.9397 35.9982 17.9991C35.9982 8.0585 27.9397 0 17.9991 0C8.0585 0 0 8.0585 0 17.9991C0 27.9397 8.0585 35.9982 17.9991 35.9982Z" fill="url(#paint0_radial_16124_493408)"/>
<mask id="mask0_16124_493408" style="mask-type:alpha" maskUnits="userSpaceOnUse" x="0" y="0" width="36" height="36">
<path d="M17.9991 35.9982C27.9397 35.9982 35.9982 27.9397 35.9982 17.9991C35.9982 8.0585 27.9397 0 17.9991 0C8.0585 0 0 8.0585 0 17.9991C0 27.9397 8.0585 35.9982 17.9991 35.9982Z" fill="url(#paint1_radial_16124_493408)"/>
</mask>
<g mask="url(#mask0_16124_493408)">
<path opacity="0.2" d="M-0.598633 9.8977C-0.598633 9.5001 -0.276294 9.17773 0.121331 9.17773H9.96084C10.3584 9.17773 10.6808 9.5001 10.6808 9.8977V26.6369C10.6808 27.0345 10.3584 27.3568 9.96084 27.3568H0.121331C-0.276294 27.3568 -0.598633 27.0345 -0.598633 26.6369V9.8977Z" fill="url(#paint2_linear_16124_493408)"/>
<path opacity="0.2" d="M21.7197 24.4172C21.7197 24.0196 22.0421 23.6973 22.4397 23.6973H35.2791C35.6767 23.6973 35.999 24.0196 35.999 24.4172V30.6569C35.999 31.0545 35.6767 31.3769 35.2791 31.3769H22.4397C22.0421 31.3769 21.7197 31.0545 21.7197 30.6569V24.4172Z" fill="#E74310"/>
<path opacity="0.2" d="M30.0598 26.3398C30.4574 26.3398 30.7798 26.6622 30.7798 27.0598V39.1792C30.7798 39.5768 30.4574 39.8992 30.0598 39.8992H25.3201C24.9225 39.8992 24.6001 39.5768 24.6001 39.1792V27.0598C24.6001 26.6622 24.9225 26.3398 25.3201 26.3398H30.0598Z" fill="#DF3600"/>
<path opacity="0.1" d="M14.58 11.6973C14.9776 11.6973 15.2999 12.0196 15.2999 12.4172V22.0767C15.2999 22.4743 14.9776 22.7967 14.58 22.7967H9.24023C8.84263 22.7967 8.52026 22.4743 8.52026 22.0767V12.4172C8.52026 12.0196 8.84263 11.6973 9.24023 11.6973H14.58Z" fill="url(#paint3_linear_16124_493408)"/>
<path opacity="0.1" d="M3.42065 14.5793C3.42065 14.1817 3.74299 13.8594 4.14062 13.8594H12.9002C13.2978 13.8594 13.6201 14.1817 13.6201 14.5793V23.7589C13.6201 24.1565 13.2978 24.4788 12.9002 24.4788H4.14062C3.74299 24.4788 3.42065 24.1565 3.42065 23.7589V14.5793Z" fill="url(#paint4_linear_16124_493408)"/>
<path opacity="0.2" d="M35.999 4.91797C36.3966 4.91797 36.719 5.24031 36.719 5.63793V17.7573C36.719 18.1549 36.3966 18.4773 35.999 18.4773H24.8396C24.442 18.4773 24.1196 18.1549 24.1196 17.7573V5.63793C24.1196 5.24031 24.442 4.91797 24.8396 4.91797H35.999Z" fill="#FF9776"/>
<path opacity="0.2" d="M29.2184 -3.12109C29.616 -3.12109 29.9384 -2.79875 29.9384 -2.40113V10.9182C29.9384 11.3158 29.616 11.6382 29.2184 11.6382H22.9788C22.5812 11.6382 22.2588 11.3158 22.2588 10.9182V-2.40113C22.2588 -2.79875 22.5812 -3.12109 22.9788 -3.12109H29.2184Z" fill="#FFCA8C"/>
<path opacity="0.2" d="M32.4578 -0.720703C32.8554 -0.720703 33.1777 -0.398364 33.1777 -0.000738364V14.8185C33.1777 15.2161 32.8554 15.5385 32.4578 15.5385H18.8984C18.5008 15.5385 18.1785 15.2161 18.1785 14.8185V-0.000738593C18.1785 -0.398364 18.5008 -0.720703 18.8984 -0.720703H32.4578Z" fill="url(#paint5_linear_16124_493408)"/>
<path opacity="0.1" d="M12.7192 -4.91992C13.1168 -4.91992 13.4392 -4.59758 13.4392 -4.19996V5.75955C13.4392 6.15715 13.1168 6.47951 12.7192 6.47951H7.97949C7.58189 6.47951 7.25952 6.15715 7.25952 5.75955V-4.19996C7.25952 -4.59758 7.58189 -4.91992 7.97949 -4.91992H12.7192Z" fill="#DF3600"/>
<path opacity="0.1" d="M13.2589 25.9785C13.6565 25.9785 13.9788 26.3009 13.9788 26.6985V35.2781C13.9788 35.6757 13.6565 35.998 13.2589 35.998H1.19946C0.801832 35.998 0.479492 35.6757 0.479492 35.2781L0.479493 26.6985C0.479493 26.3009 0.801832 25.9785 1.19946 25.9785H13.2589Z" fill="#DF3600"/>
<path opacity="0.1" d="M23.8786 21.1777C24.2762 21.1777 24.5986 21.5001 24.5986 21.8977V35.277C24.5986 35.6746 24.2762 35.997 23.8786 35.997H10.0793C9.68174 35.997 9.35938 35.6746 9.35938 35.277V21.8977C9.35938 21.5001 9.68174 21.1777 10.0793 21.1777H23.8786Z" fill="#FFD494"/>
<path opacity="0.2" d="M19.3204 6.29411e-07C19.718 6.46792e-07 20.0404 0.322339 20.0404 0.719964V4.19979C20.0404 4.59741 19.718 4.91975 19.3204 4.91975H4.92114C4.52351 4.91975 4.20117 4.59741 4.20117 4.19979V0.719964C4.20117 0.322339 4.52351 -1.73808e-08 4.92114 0L19.3204 6.29411e-07Z" fill="#FFD494"/>
<path opacity="0.1" d="M7.96528 35.6487L34.9285 8.68555L34.0037 7.76081L7.04055 34.724L7.96528 35.6487Z" fill="#DF3600"/>
<path opacity="0.1" d="M5.94258 33.6839L32.9058 6.7207L31.7018 5.51672L4.7386 32.4799L5.94258 33.6839Z" fill="#DF3600"/>
<path opacity="0.1" d="M4.80366 32.428L31.7668 5.46484L30.5629 4.26086L3.59968 31.224L4.80366 32.428Z" fill="#F45C2C"/>
<path opacity="0.2" d="M3.72334 31.1058L30.6865 4.14258L29.6956 3.15167L2.73244 30.1149L3.72334 31.1058Z" fill="#F45C2C"/>
<path opacity="0.1" d="M2.73189 30.1155L29.6951 3.15234L28.7042 2.16144L1.74098 29.1246L2.73189 30.1155Z" fill="#FFBC6E"/>
<path opacity="0.1" d="M2.071 28.7933L29.0342 1.83008L28.0433 0.839174L1.08009 27.8024L2.071 28.7933Z" fill="#DF3600"/>
<path opacity="0.09" d="M-1.10886 20.874L20.1519 -0.386719L19.161 -1.37762L-2.09977 19.8831L-1.10886 20.874Z" fill="#FFD5A4"/>
<path opacity="0.08" d="M-2.24778 19.6709L19.0129 -1.58984L18.022 -2.58075L-3.23868 18.68L-2.24778 19.6709Z" fill="#FFD5A4"/>
<path opacity="0.05" d="M-3.26975 18.292L17.991 -2.96875L17.0001 -3.95965L-4.26066 17.3011L-3.26975 18.292Z" fill="#FFD5A4"/>
<path opacity="0.2" d="M0.570368 23.7634L25.2634 -0.929688L24.2725 -1.92059L-0.420536 22.7725L0.570368 23.7634Z" fill="#FFD5A4"/>
<path opacity="0.2" d="M1.23101 25.322L25.9241 0.628906L24.9332 -0.361998L0.240108 24.3311L1.23101 25.322Z" fill="#FFD5A4"/>
<path opacity="0.1" d="M0.150772 21.9549L22.0667 0.0390625L21.0757 -0.951842L-0.840132 20.964L0.150772 21.9549Z" fill="#FFD5A4"/>
<path opacity="0.1" d="M7.92525 35.6663L34.8884 8.70312L32.9115 6.72622L5.94835 33.6894L7.92525 35.6663Z" fill="#DF3600"/>
<path opacity="0.1" d="M7.92525 35.6663L34.8884 8.70312L32.9015 6.71615L5.93828 33.6793L7.92525 35.6663Z" fill="#DF3600"/>
</g>
<path d="M17.9732 21.8818L11.1252 17.8308L17.9732 6.4707L24.8151 17.8308L17.9732 21.8818Z" fill="white"/>
<path d="M17.9732 28.7817L11.1252 19.1367L17.9732 23.1816L24.8213 19.1367L17.9732 28.7817Z" fill="white"/>
<defs>
<radialGradient id="paint0_radial_16124_493408" cx="0" cy="0" r="1" gradientUnits="userSpaceOnUse" gradientTransform="translate(11.7594 8.60957) rotate(54.1675) scale(29.8234)">
<stop stop-color="#FFD794"/>
<stop offset="1" stop-color="#ED5A37"/>
</radialGradient>
<radialGradient id="paint1_radial_16124_493408" cx="0" cy="0" r="1" gradientUnits="userSpaceOnUse" gradientTransform="translate(11.7594 8.60957) rotate(54.1675) scale(29.8234)">
<stop stop-color="#FFD794"/>
<stop offset="1" stop-color="#ED5A37"/>
</radialGradient>
<linearGradient id="paint2_linear_16124_493408" x1="5.04109" y1="9.17773" x2="5.04109" y2="27.3568" gradientUnits="userSpaceOnUse">
<stop stop-color="#FFE090"/>
<stop offset="1" stop-color="#FFE090" stop-opacity="0"/>
</linearGradient>
<linearGradient id="paint3_linear_16124_493408" x1="11.8801" y1="11.6973" x2="11.8801" y2="21.9568" gradientUnits="userSpaceOnUse">
<stop stop-color="#DF3600"/>
<stop offset="1" stop-color="#DF3600" stop-opacity="0"/>
</linearGradient>
<linearGradient id="paint4_linear_16124_493408" x1="3.42065" y1="19.2161" x2="12.8483" y2="19.2161" gradientUnits="userSpaceOnUse">
<stop stop-color="#DF3600"/>
<stop offset="1" stop-color="#DF3600" stop-opacity="0"/>
</linearGradient>
<linearGradient id="paint5_linear_16124_493408" x1="25.6781" y1="-0.720703" x2="25.6781" y2="15.5385" gradientUnits="userSpaceOnUse">
<stop stop-color="#DF3600"/>
<stop offset="1" stop-color="#DF3600" stop-opacity="0"/>
</linearGradient>
</defs>
</svg>

<svg xmlns="http://www.w3.org/2000/svg" width="36" height="36" fill="none"><path fill="url(#a)" d="M18 35.998c9.94 0 17.998-8.058 17.998-17.999C35.998 8.06 27.94 0 18 0 8.06 0 0 8.059 0 18c0 9.94 8.059 17.998 18 17.998Z"/><mask id="c" width="36" height="36" x="0" y="0" maskUnits="userSpaceOnUse" style="mask-type:alpha"><path fill="url(#b)" d="M18 35.998c9.94 0 17.998-8.058 17.998-17.999C35.998 8.06 27.94 0 18 0 8.06 0 0 8.059 0 18c0 9.94 8.059 17.998 18 17.998Z"/></mask><g mask="url(#c)"><path fill="url(#d)" d="M-.599 9.898a.72.72 0 0 1 .72-.72h9.84a.72.72 0 0 1 .72.72v16.739a.72.72 0 0 1-.72.72H.12a.72.72 0 0 1-.72-.72V9.897Z" opacity=".2"/><path fill="#E74310" d="M21.72 24.417a.72.72 0 0 1 .72-.72h12.84a.72.72 0 0 1 .719.72v6.24a.72.72 0 0 1-.72.72H22.44a.72.72 0 0 1-.72-.72v-6.24Z" opacity=".2"/><path fill="#DF3600" d="M30.06 26.34a.72.72 0 0 1 .72.72v12.12a.72.72 0 0 1-.72.72h-4.74a.72.72 0 0 1-.72-.72V27.06a.72.72 0 0 1 .72-.72h4.74Z" opacity=".2"/><path fill="url(#e)" d="M14.58 11.697a.72.72 0 0 1 .72.72v9.66a.72.72 0 0 1-.72.72H9.24a.72.72 0 0 1-.72-.72v-9.66a.72.72 0 0 1 .72-.72h5.34Z" opacity=".1"/><path fill="url(#f)" d="M3.42 14.58a.72.72 0 0 1 .72-.72h8.76a.72.72 0 0 1 .72.72v9.179a.72.72 0 0 1-.72.72H4.14a.72.72 0 0 1-.72-.72v-9.18Z" opacity=".1"/><path fill="#FF9776" d="M35.999 4.918a.72.72 0 0 1 .72.72v12.12a.72.72 0 0 1-.72.72h-11.16a.72.72 0 0 1-.72-.72V5.637a.72.72 0 0 1 .72-.72H36Z" opacity=".2"/><path fill="#FFCA8C" d="M29.218-3.121a.72.72 0 0 1 .72.72v13.32a.72.72 0 0 1-.72.72h-6.24a.72.72 0 0 1-.72-.72v-13.32a.72.72 0 0 1 .72-.72h6.24Z" opacity=".2"/><path fill="url(#g)" d="M32.458-.72a.72.72 0 0 1 .72.72v14.819a.72.72 0 0 1-.72.72h-13.56a.72.72 0 0 1-.72-.72V-.002a.72.72 0 0 1 .72-.72h13.56Z" opacity=".2"/><path fill="#DF3600" d="M12.72-4.92a.72.72 0 0 1 .72.72v9.96a.72.72 0 0 1-.72.72H7.98a.72.72 0 0 1-.72-.72V-4.2a.72.72 0 0 1 .72-.72h4.74ZM13.259 25.979a.72.72 0 0 1 .72.72v8.58a.72.72 0 0 1-.72.719H1.199a.72.72 0 0 1-.72-.72v-8.58a.72.72 0 0 1 .72-.72h12.06Z" opacity=".1"/><path fill="#FFD494" d="M23.879 21.178a.72.72 0 0 1 .72.72v13.379a.72.72 0 0 1-.72.72h-13.8a.72.72 0 0 1-.72-.72v-13.38a.72.72 0 0 1 .72-.72h13.8Z" opacity=".1"/><path fill="#FFD494" d="M19.32 0a.72.72 0 0 1 .72.72V4.2a.72.72 0 0 1-.72.72H4.921a.72.72 0 0 1-.72-.72V.72a.72.72 0 0 1 .72-.72h14.4Z" opacity=".2"/><path fill="#DF3600" d="M7.965 35.649 34.928 8.686l-.924-.925L7.04 34.724l.924.925ZM5.943 33.684 32.906 6.72l-1.204-1.204L4.739 32.48l1.204 1.204Z" opacity=".1"/><path fill="#F45C2C" d="M4.804 32.428 31.767 5.465 30.563 4.26 3.6 31.224l1.204 1.204Z" opacity=".1"/><path fill="#F45C2C" d="M3.723 31.106 30.686 4.143l-.99-.991L2.732 30.115l.991.99Z" opacity=".2"/><path fill="#FFBC6E" d="M2.732 30.116 29.695 3.152l-.99-.99L1.74 29.124l.99.99Z" opacity=".1"/><path fill="#DF3600" d="M2.071 28.793 29.034 1.83l-.99-.99L1.08 27.801l.991.991Z" opacity=".1"/><path fill="#FFD5A4" d="m-1.109 20.874 21.26-21.26-.99-.992-21.26 21.261.99.991Z" opacity=".09"/><path fill="#FFD5A4" d="m-2.248 19.67 21.26-21.26-.99-.99-21.26 21.26.99.99Z" opacity=".08"/><path fill="#FFD5A4" d="m-3.27 18.292 21.261-21.26-.99-.992-21.262 21.261.991.991Z" opacity=".05"/><path fill="#FFD5A4" d="M.57 23.763 25.263-.93l-.99-.99L-.421 22.772l.991.99ZM1.231 25.322 25.924.629l-.99-.991L.24 24.331l.991.991Z" opacity=".2"/><path fill="#FFD5A4" d="M.15 21.955 22.068.039l-.991-.99L-.84 20.963l.99.99Z" opacity=".1"/><path fill="#DF3600" d="M7.925 35.666 34.888 8.703l-1.977-1.977L5.948 33.69l1.977 1.977Z" opacity=".1"/><path fill="#DF3600" d="M7.925 35.666 34.888 8.703l-1.986-1.987L5.938 33.68l1.987 1.987Z" opacity=".1"/></g><path fill="#fff" d="m17.973 21.882-6.848-4.051 6.848-11.36 6.842 11.36-6.842 4.05Z"/><path fill="#fff" d="m17.973 28.782-6.848-9.645 6.848 4.045 6.848-4.045-6.848 9.645Z"/><defs><linearGradient id="d" x1="5.041" x2="5.041" y1="9.178" y2="27.357" gradientUnits="userSpaceOnUse"><stop stop-color="#FFE090"/><stop offset="1" stop-color="#FFE090" stop-opacity="0"/></linearGradient><linearGradient id="e" x1="11.88" x2="11.88" y1="11.697" y2="21.957" gradientUnits="userSpaceOnUse"><stop stop-color="#DF3600"/><stop offset="1" stop-color="#DF3600" stop-opacity="0"/></linearGradient><linearGradient id="f" x1="3.421" x2="12.848" y1="19.216" y2="19.216" gradientUnits="userSpaceOnUse"><stop stop-color="#DF3600"/><stop offset="1" stop-color="#DF3600" stop-opacity="0"/></linearGradient><linearGradient id="g" x1="25.678" x2="25.678" y1="-.721" y2="15.539" gradientUnits="userSpaceOnUse"><stop stop-color="#DF3600"/><stop offset="1" stop-color="#DF3600" stop-opacity="0"/></linearGradient><radialGradient id="a" cx="0" cy="0" r="1" gradientTransform="rotate(54.167 -2.538 15.803) scale(29.8234)" gradientUnits="userSpaceOnUse"><stop stop-color="#FFD794"/><stop offset="1" stop-color="#ED5A37"/></radialGradient><radialGradient id="b" cx="0" cy="0" r="1" gradientTransform="rotate(54.167 -2.538 15.803) scale(29.8234)" gradientUnits="userSpaceOnUse"><stop stop-color="#FFD794"/><stop offset="1" stop-color="#ED5A37"/></radialGradient></defs></svg>
